static/icon/icon_new.svg

<svg height="22" viewBox="0 0 22 22" width="22" xmlns="http://www.w3.org/2000/svg"><g fill="none" fill-rule="evenodd"><rect fill="#ef5350" height="22" rx="2" width="22"/><path d="m8.456 17v-7.648h.032l4.752 7.648h2.512v-11.424h-2.352v7.664h-.032l-4.768-7.664h-2.496v11.424z" fill="#fff" fill-rule="nonzero"/></g></svg>

<svg xmlns="http://www.w3.org/2000/svg" width="22" height="22" viewBox="0 0 22 22">
    <g fill="none" fill-rule="evenodd">
        <g>
            <rect width="22" height="22" fill="#EF5350" rx="2"/>
            <path fill="#FFF" fill-rule="nonzero" d="M8.456 17L8.456 9.352 8.488 9.352 13.24 17 15.752 17 15.752 5.576 13.4 5.576 13.4 13.24 13.368 13.24 8.6 5.576 6.104 5.576 6.104 17z"/>
        </g>
    </g>
</svg>
